src/icons/brand/glyph/LinkedInIcon.svg

<svg width="24" height="24" viewBox="0 0 24 24" fill="none" xmlns="http://www.w3.org/2000/svg">
<path fill-rule="evenodd" clip-rule="evenodd" d="M2 4.40166C2 3.07583 3.07583 2 4.40166 2C5.72666 2 6.80249 3.07583 6.80332 4.40166C6.80332 5.72749 5.72749 6.82582 4.40166 6.82582C3.07583 6.82582 2 5.72749 2 4.40166ZM21.9949 22V21.9991H21.9999V14.6641C21.9999 11.0758 21.2274 8.31165 17.0324 8.31165C15.0158 8.31165 13.6625 9.41832 13.11 10.4675H13.0516V8.64665H9.07418V21.9991H13.2158V15.3875C13.2158 13.6466 13.5458 11.9633 15.7016 11.9633C17.8258 11.9633 17.8575 13.95 17.8575 15.4991V22H21.9949ZM2.33001 8.64755H6.4767V22H2.33001V8.64755Z" fill="currentColor"/>
</svg>

<svg xmlns="http://www.w3.org/2000/svg" width="24" height="24" fill="currentColor" viewBox="0 0 24 24">
  <path fill-rule="evenodd" d="M2 4.402a2.402 2.402 0 0 1 4.803 0c0 1.325-1.076 2.424-2.401 2.424C3.076 6.826 2 5.727 2 4.402ZM21.995 22H22v-7.336c0-3.588-.773-6.352-4.968-6.352-2.016 0-3.37 1.106-3.922 2.155h-.058v-1.82H9.074v13.352h4.142v-6.611c0-1.741.33-3.425 2.486-3.425 2.124 0 2.156 1.987 2.156 3.536V22h4.137ZM2.33 8.648h4.147V22H2.33V8.648Z" clip-rule="evenodd"/>
</svg>
